X:75
T:Drunken Landlady, The
R:reel
Z:Transcribed by Dave Marshall
M:C|
K:Edor
|:B~E3 BAFA|B~E3 BAFB|ABAF D2DE|FAAd BAFA|
B~E3 BAFA|B~E3 BAFG|A2Bc dfec|dBAF E2FA:|
|:Beed e2de|f2df efdB|ABAF D2DE|FAAd BAFA|
Beed e2de|f2df efdB|A2Bc dfec|dBAF E2FA:|
